svg/fluentui-system-icons/ic_fluent_timer_20_regular.svg

<svg width="20" height="20" viewBox="0 0 20 20" fill="none" xmlns="http://www.w3.org/2000/svg">
<path d="M7.5 2C7.22386 2 7 2.22386 7 2.5C7 2.77614 7.22386 3 7.5 3H11.5C11.7761 3 12 2.77614 12 2.5C12 2.22386 11.7761 2 11.5 2H7.5ZM15.1563 3.92899C14.961 3.73373 14.6444 3.73373 14.4492 3.92899C14.2539 4.12426 14.2539 4.44084 14.4492 4.6361L15.8634 6.05031C16.0587 6.24558 16.3752 6.24558 16.5705 6.05031C16.7658 5.85505 16.7658 5.53847 16.5705 5.34321L15.1563 3.92899ZM9.5 6C9.22386 6 9 6.22386 9 6.5V11.5C9 11.7761 9.22386 12 9.5 12C9.77614 12 10 11.7761 10 11.5V6.5C10 6.22386 9.77614 6 9.5 6ZM9.5 18C13.366 18 16.5 14.866 16.5 11C16.5 7.13401 13.366 4 9.5 4C5.63401 4 2.5 7.13401 2.5 11C2.5 14.866 5.63401 18 9.5 18ZM9.5 17C6.18629 17 3.5 14.3137 3.5 11C3.5 7.68629 6.18629 5 9.5 5C12.8137 5 15.5 7.68629 15.5 11C15.5 14.3137 12.8137 17 9.5 17Z" fill="#212121"/>
</svg>

<svg xmlns="http://www.w3.org/2000/svg" width="20" height="20"><path d="M7.5 2a.5.5 0 0 0 0 1h4a.5.5 0 0 0 0-1h-4Zm7.656 1.929a.5.5 0 1 0-.707.707l1.414 1.414a.5.5 0 1 0 .707-.707L15.156 3.93ZM9.5 6a.5.5 0 0 0-.5.5v5a.5.5 0 0 0 1 0v-5a.5.5 0 0 0-.5-.5Zm0 12a7 7 0 1 0 0-14 7 7 0 0 0 0 14Zm0-1a6 6 0 1 1 0-12 6 6 0 0 1 0 12Z"/></svg>
